!!!!SEGMENT: pl-wtm--r-66-n--007_noskowski-zygmunt--piesni-ludowe-op-51-kujawiak.krn
!!!cenid: 18xx:2285
!!!COM: Noskowski, Zygmunt
!!!COM-rismid: pe106604
!!!CDT: 1846/05/02-1909/07/23
!!!CNT: Polish
!!!GTL: Pieśni ludowe op. 51
!!!OTL: Kujawiak
!!!PDT:
!!!AGN: Secular; Song
!!!SMS-siglum: PL-Wtm
!!!SMS-shelfmark: R 66/N
!!!SMS-shelfwork: 007 G
!!!SMS-variant:
!!!SMS-altvar:
!!!NIFC-rismid: 1001096668
!!!OMD: Andantino melancolico
!!!system-decoration: {(s1,s2)}
!!!key:
**kern	**dynam	**kern	**text	**text	**dynam
*part2	*part2	*part1	*part1	*part1	*part1
*staff2	*	*staff1	*staff1	*staff1	*
*Ibass	*	*Itenor	*	*	*
*I"Basy	*	*I"Tenory	*	*	*
*I'B.	*	*I'T.	*	*	*
*clefF4	*	*clefG2v2	*	*	*
*k[]	*	*k[]	*	*	*
*a:	*	*a:	*	*	*
*M3/4	*	*M3/4	*	*	*
*>[A,A]	*	*>[A,A]	*	*	*
=1	=1	=1	=1	=1	=1
*^	*	*	*	*	*
*	*	*	*^	*	*	*
*>A	*>A	*	*>A	*>A	*	*	*
!	!	!	!LO:TX:a:Bi:t=(Do śpiewania także w As minor)	!	!	!	!
!	!	!LO:DY:b:rj	!	!	!	!	!LO:DY:b:rj
8A/	8A\	mf	8A/	8A\	1. Nie	2. Po-	mf
8E/	8E\	.	8c/	8A\	wy-	-có-	.
4.E/	4.C\	.	4.e/	4.A\	-pę-	-żeś	.
8G#X/	8E\	.	8d/	8B\	-dzaj	ty	.
=2	=2	=2	=2	=2	=2	=2	=2
8A/	8AA\	.	8c/	8A\	pa-	woł-	.
8E/	8E\	.	8c/	8A\	-ste-	-ki	.
4E/	4D\	.	4B/	4G#X\	-recz-	przy-	.
4E/	4C\	.	4A/	4A\	-ko	-gnał	.
=3	=3	=3	=3	=3	=3	=3	=3
!	!	!LO:HP:b	!	!	!	!	!
8F/	8F\	<	8d/	8A\	O-	Na	<
8A/	8F\	.	8f/	8d\	-wiec	mo-	.
!	!	!LO:DY:b:rj	!	!	!	!	!LO:DY:b:rj
4.A/	4.D\	[ f	4.a/	4.f\	na	-ją	[ f
8B/	8D\	.	8g#X/	8e\	ro-	ro-	.
=4	=4	=4	=4	=4	=4	=4	=4
8c/	8D\	.	8a/	8f\	-sę	-le	.
8B/	8D\	.	8g#X/	8f\	na	da	.
!	!	!LO:HP:b	!	!	!	!	!
4A/	4C\	>	4a/	4e\	ro-	ro-	>
4F/	4F\	]	4A/	4A\	-sę,	-lę?	]
=5	=5	=5	=5	=5	=5	=5	=5
8E/	8E\	.	8G#X/	8G#\	bo	Kie-	<
8E/	8D\	.	8B/	8G#\	byś	-dym	.
4.F#X/	4.C\	.	4.e/	4.A\	so-	ja	[
8G#X/	8BB\	.	8d/	8B\	-bie	ci	.
!!LO:LB:g=original
=6	=6	=6	=6	=6	=6	=6	=6
8A/	8AA\	.	8c/	8A\	po-	po-	.
8A/	16BB\LL	.	8c/	8A\	-ma-	-wia-	.
.	16C\JJ	.	.	.	.	.	.
4Fn/	4D\	.	4B/	4B\	-cza-	-da-	.
4F/	4F\	.	4A/	4A\	-ła,	-ła,	.
=7	=7	=7	=7	=7	=7	=7	=7
8E/	8E\	.	8B/	8G#X\	Nóż-	Że	.
8E/	8BB\	.	8G#X/	8G#\	-ki	cię	.
4.E/	4.E\	.	4.E/	4.E\	swe	nie	.
8E/	8D\	.	8G#/	8G#\	bo-	wo-	.
=8	=8	=8	=8	=8	=8	=8	=8
8E/	8C\	.	8A/	8A\	-se,	-lę	.
8A/	8E\	.	8c/	8c\	da	da	.
8A/	8Gn\	.	8e/	8e\	da-	da-	.
8A/	8F\	.	8d/	8d\	-na,	-na,	.
8A/	8E\	.	8c/	8c\	da-	da-	.
8A/	8D#X\	.	8B/	8B\	-na,	-na,	.
=9	=9	=9	=9	=9	=9	=9	=9
!	!	!LO:HP:b	!	!	!	!	!
8G#X/	8E\	>	8c/	8c\	Nóż-	Że	.
8G#/	8Dn\	.	8B/	8B\	-ki	cię	>
4E/	4C\	.	4E/	4E\	swe	nie	.
4D/	4BB\	]	4G#X/	4E\	bo-	wo-	]
=10	=10	=10	=10	=10	=10	=10	=10
!	!	!LO:DY:b:rj	!	!	!	!	!LO:DY:a:rj
2.C/	2.AA\	p	2.A/	2.E\	-se.	-lę.	p
!!LO:LB:g=original
=11	=11	=11	=11	=11	=11	=11	=11
!	!	!LO:DY:b:rj	!	!	!	!	!LO:DY:a:rj
8C/	8AA\	mf	8A/	8E\	Nie	Po	mf
8E/	8AA\	.	8c/	8A\	wy-	co-	.
4.G/	4.GG\	.	4.e/	4.B\	-pę-	-żeś	.
8F/	8GG\	.	8d/	8B\	-dzaj	ty	.
=12	=12	=12	=12	=12	=12	=12	=12
8E/	8C\	.	8c/	8c\	woł-	woł-	.
!	!	!LO:HP:b	!	!	!	!	!
8E/	8C\	<	8c/	8G\	-ków	-ki	<
4E/	4E\	.	4B/	4G\	w po-	przy-	.
4F/	4F\	[	4A/	4A\	-le,	-gnał,	[
=13	=13	=13	=13	=13	=13	=13	=13
!	!	!LO:DY:b:rj	!	!	!	!	!LO:DY:b:rj
8F/	8D\	f	8d/	8A\	Boś	Kiejś	[ f
8A/	8C\	.	8f/	8d\	mi	mi	.
4.d/	4.BB\	.	4.a/	4.f\	nie	nie	.
8d/	8BB\	.	8g#X/	8f\	mi-	ład-	.
=14	=14	=14	=14	=14	=14	=14	=14
8e/	8C\	.	8a/	8e\	-ły	-ny	.
!	!	!LO:HP:b	!	!	!	!	!
8d/	8BB\	>	8g#X/	8e\	nie	nie	>
4c/	4AA\	.	4a/	4e\	mi-	ład-	.
4E/	4C\	]	4A/	4A\	-ły,	-ny	.
=15	=15	=15	=15	=15	=15	=15	=15
8E/	8E\	.	8G#X/	8G#\	Bo	Nie	]
8E/	8E\	.	8B/	8G#\	nie	bę-	.
4.E/	4.GG#X\	.	4.e/	4.B\	bę-	-dą	.
8E/	8GG#\	.	8d/	8B\	-dą	tu	.
!!LO:LB:g=original
=16	=16	=16	=16	=16	=16	=16	=16
8E/	8AA\	.	8c/	8A\	mo-	two-	.
8E/	8AA\	.	8c/	8A\	-je	-je	.
4D#X/	4BB\	.	4B/	4F#X\	woł-	woł-	.
4D#/	4BB\	.	4A/	4F#\	-ki	-ki	.
=17	=17	=17	=17	=17	=17	=17	=17
8E/	8E\	.	8B/	8G#X\	Z twe-	Z mo-	.
!	!	!LO:HP:b	!	!	!	!	!
8E/	8D\	>	8G#/	8G#\	-mi	-je-	>
4.E/	4.C\	.	4.E/	4.E\	cho-	-mi	.
8Dn/	8BB\	]	8G#/	8E\	-dzi-	jad-	]
=18	=18	=18	=18	=18	=18	=18	=18
8C/	8AA\	.	8A/	8E\	-ły,	-łu,	]
8E/	8AA\	.	8c/	8A\	da	da	.
8Gn/	8GGn\	.	8e/	8B\	da-	da-	.
8F/	8GG\	.	8d/	8A\	-na,	-na,	.
8E/	8C\	.	8c/	8G\	da-	da-	.
8E/	8C\	.	8B/	8G\	-na,	-na,	.
=19	=19	=19	=19	=19	=19	=19	=19
!	!	!LO:DY:b:rj	!	!	!	!	!LO:DY:b:rj
8D/	8FF\	p	8c/	8A\	Z twe-	Z mo-	p
!	!	!LO:HP:b	!	!	!	!	!
8E-X/	8FF#X\	>	8B/	8A\	-mi	-je-	>
4D/	4GG#X\	.	4E/	4E\	cho-	-mi	.
4D/	4BB\	]	4G#X/	4E\	-dzi-	jad-	]
=20	=20	=20	=20	=20	=20	=20	=20
2.C;>/	2.AA;<\	.	2.A;>/	2.E\	-ły.	-ły.	.
*v	*v	*	*	*	*	*	*
*	*	*v	*v	*	*	*
==:|!	==:|!	==:|!	==:|!	==:|!	==:|!
*-	*-	*-	*-	*-	*-
!!title: @{OTL};
!!!RDF**kern: > = above
!!!RDF**kern: < = below
!!!RDF**kern: | = vertical stroke
!!!RDF**kern: N = linked
!!!RDF**kern: i = editorial accidental
!!!EED: Wojciech Jakubiak-Danek
!!!EST: 2021-06-09
!!!URL-scan: http://repozytorium.nifc.pl/skany/pl-wtm-nut--r66n
!!!ONB-nifc: UWAGA: na podstawie partytur z folderu pl-wtm-r66n
!!!AIN: 1 bass 1 tenor
!!!ENC: Berenika Jozajtis
!!!END: 2021-05-31
